public/images/robohash/eyes/eyes-02.svg

<svg viewBox="0 0 300 300" xmlns="http://www.w3.org/2000/svg"><path d="m110.5 122.5c-4 0-17 2-17 17s10 17 17 17 15-5 15-18-11-16-15-16z" fill="#26a9e0"/><path d="m153.5 121.5c-4 0-17.5 2.5-17.5 17.5s10.5 16.5 17.5 16.5 16-5 16-18c-2.5-15.5-12-16-16-16z" fill="#26a9e0"/><g stroke="#000" stroke-linecap="round" stroke-linejoin="round"><path d="m110.5 126.5s-13 0-13 12 10 13 13 13 12-2 12-14.52c0 .02-1-9.48-12-10.48z" fill-opacity=".2" stroke-width=".5"/><path d="m154.5 121.5s-20 0-19 18 19 16 19 16 16-2 15-17-11-17-15-17z" fill-opacity=".4"/><path d="m110.5 122.5c-4 0-17 2-17 17s10 17 17 17 15-5 15-18-11-16-15-16z" fill-opacity=".4"/><path d="m140.1 137.73s-2 13.2 12.18 13.2 14.22-10.15 14.22-13.2-3-12.18-12.18-12.18-14.22 7.1-14.22 12.18z" fill-opacity=".4" stroke-width=".5"/><path d="m109 127s-9 1-9 9 2.5 12.5 10.5 12.5 12-5 12-10-5-12-13.5-11.5z" fill="#461917" stroke-width=".5"/><path d="m154 126s-10.5.52-11 9.4 4 13.6 11 13.6 12-6.26 12-11.49-4.5-12-12-11.51z" fill="#461917" stroke-width=".5"/></g><path d="m110.26 134.06a.92.92 0 0 0 -.24.05c-.36.13-1 .61-1 2.31 0 2.36 0 3.54 1.26 3.54s2.51 0 2.51-3.54c-.02-2.36-1.67-2.56-2.53-2.36z" fill="#faaf40"/><path d="m154.26 134.06a.92.92 0 0 0 -.24.05c-.36.13-1 .61-1 2.31 0 2.36 0 3.54 1.26 3.54s2.51 0 2.51-3.54c-.02-2.36-1.67-2.56-2.53-2.36z" fill="#faaf40"/></svg>

<svg xmlns="http://www.w3.org/2000/svg" viewBox="0 0 300 300"><defs><style>.cls-1{fill:#26a9e0;}.cls-2{fill-opacity:0.2;}.cls-2,.cls-3,.cls-4,.cls-5{stroke:#000;stroke-linecap:round;stroke-linejoin:round;}.cls-2,.cls-4,.cls-5{stroke-width:0.5px;}.cls-3,.cls-4{fill-opacity:0.4;}.cls-5{fill:#461917;}.cls-6{fill:#faaf40;}</style></defs><title>eyes</title><g id="eyes-02"><g id="fill_color" data-name="fill color"><path id="fillcolor" class="cls-1" d="M110.5,122.5c-4,0-17,2-17,17s10,17,17,17,15-5,15-18S114.5,122.5,110.5,122.5Z"/><path id="fillcolor-2" data-name="fillcolor" class="cls-1" d="M153.5,121.5c-4,0-17.5,2.5-17.5,17.5s10.5,16.5,17.5,16.5,16-5,16-18C167,122,157.5,121.5,153.5,121.5Z"/></g><path class="cls-2" d="M110.5,126.5s-13,0-13,12,10,13,13,13,12-2,12-14.52C122.5,137,121.5,127.5,110.5,126.5Z"/><path class="cls-3" d="M154.5,121.5s-20,0-19,18,19,16,19,16,16-2,15-17S158.5,121.5,154.5,121.5Z"/><path class="cls-3" d="M110.5,122.5c-4,0-17,2-17,17s10,17,17,17,15-5,15-18S114.5,122.5,110.5,122.5Z"/><path class="cls-4" d="M140.1,137.73s-2,13.2,12.18,13.2,14.22-10.15,14.22-13.2-3-12.18-12.18-12.18S140.1,132.65,140.1,137.73Z"/><path class="cls-5" d="M109,127s-9,1-9,9,2.5,12.5,10.5,12.5,12-5,12-10S117.5,126.5,109,127Z"/><path class="cls-5" d="M154,126s-10.5.52-11,9.4S147,149,154,149s12-6.26,12-11.49S161.5,125.51,154,126Z"/><path class="cls-6" d="M110.26,134.06a.92.92,0,0,0-.24.05c-.36.13-1,.61-1,2.31,0,2.36,0,3.54,1.26,3.54s2.51,0,2.51-3.54C112.77,134.06,111.12,133.86,110.26,134.06Z"/><path class="cls-6" d="M154.26,134.06a.92.92,0,0,0-.24.05c-.36.13-1,.61-1,2.31,0,2.36,0,3.54,1.26,3.54s2.51,0,2.51-3.54C156.77,134.06,155.12,133.86,154.26,134.06Z"/></g></svg>
